!!!COM: Schubert, Franz
!!!CNT: Deutscher
!!!TXO: Deutsch
!!!LYR: Johann Wolfgang von Goethe
!!!OTL: "Auf dem See"
!!!OPS: Op. 92
!!!ONM: No. 2
!!!ODT: 1817/
!!NB: Vocal melody only encoded.
!!NB: Original key: Eb major
**kern
*clefG2
*k[]
*M6/8
*MM[Massig]
=5
4r
8r
4r
{8g
=6
[4.cc
8cc]
8g
8e
=7
4.a
4d}
8r
=8
{[4.B
8B]
8d
8g
=9
fq
4.e}
8r
8r
{16g
16e
=10
4.d
4e
8a
=11
4.g
8f#
gq
f#q
8e
8f#
=12
[4.g
8g]}
8r
{8g
=13
[4.cc
8cc]
8g
8e
=14
4.e
8d}
8r
{8a
=15
[4.B
8B]
8d
8g
=16
fq
4.e}
4r
{16g
16e
=17
4.d
4e
8a
=18
4.b
bq
8a
8g
8a
=19
[4.g
8g]}
8r
{8g
=20
4a
8g#
4a
8c#
=21
8.d
16e
16f
16g
4a}
{8a-
=22
4g
8B
8.B
16c
8d
=23
[4.e
8e]}
8r
{8e
=24
4e
8e
4e
8e
=25
4cc
8cc
4cc}
{8a
=26
4g
8g
8.g
16a
8g
=27
4.e}
4r
{8e
=28
4e
8e
4e
8e
=29
4cc
8cc
4cc}
{8a
=30
4g
8g
8.g
16a
8g
=31
4.c}
4r
8r
=32
2.r
=33
2.r
=34
2.r
=35
4r
8r
{4e
16r
16e
=36
4a
8a
4a
8a
=37
4a
8d}
4r
8r
=38
{4.b
8.cc
16b
8a
=39
4dd
8b
4.a}
=40
{4.b
8.cc
16b
8a
=41
4dd
8b
4.a}
=42
2.r
=43
{4b
8b
8.dd
16cc
16b
16a
=44
4g
16cc
16b
4b}
8r
=45
{8e
8a
8g#
8a
8cc
8ee
=46
8g#
8.b
16a
4g#}
8r
=47
{8e
8a
8g#
8a
8cc
8ee
=48
8g
8.b
16a
4g}
8r
=49
4r
8r
4r
8r
=50
*M2/4
{8g
8cc
8b
8cc
=51
8.g
16f
8e}
8r
=52
{8g
8cc
8b
16cc
16a
=53
8.g
16f
8e}
8r
=54
{16a
16dd
8dd
8cc#
8dd
=55
8.a
16g
8f}
8r
=56
{8a
8dd
8cc#
16dd
16dd
=57
8.a
16g
8f}
8r
=58
{16b-
16a
16b-
16cc
8a
8cc
=59
8b-
8cc
4a}
=60
{16b-
16a
16b-
16cc
8a
8cc
=61
8b-
16cc
16b-
4a}
=62
{16cc
16b
16cc
16dd
8b
8dd
=63
8cc
8dd
4b}
=64
{16cc
16b
16cc
16dd
8b
8dd
=65
8cc
16dd
16cc
4b}
=66
{16g
16cc
8cc
8b
8cc
=67
8.g
16f
8e}
8r
=68
{16g
16cc
8cc
16b
16dd
16cc
16a
=69
8.g
16f
8e}
8r
=70
{16a
16dd
8dd
8cc#
8dd
=71
8.a
16g
8f}
8r
=72
{16a
16dd
8dd
16cc#
16ee
16dd
16a
=73
8.a
16g
8f}
8r
=74
{8g
16a
16b
8cc
16b
16a
=75
8.g
16f
8e}
8r
=76
{8g
16a
16b
16dd
16cc
16b
16a
=77
8.g
16f
8e}
8r
=78
{4.cc
8cc
=79
8cc
8ee
16dd
16cc
16b
16a
=80
4g
16f#
16g
16a
16g
=81
4e}
4r
=82
{4.cc
8cc
=83
8cc
8ee
16dd
16cc
16b
16a
=84
[2g
=85
8.g]
32a
32g
16f#
16g
16a
16g
=86
4c}
4r
==
*-
